X:90
T: Der heimkehrende Soldat
N: Q0103G
O: Mitteleuropa, Deutschland (BRD) , Hessen
N: Anhaengsel; letzte Zeile = Refrain.
R: Ballade, Ehe, Betrug
M: 6/8
L: 1/16
K: G
D2 | D2G2G2G2B2B2 | B2A2A2A4d2 | B6-B2z2
G2 | d4d2d2d2e2 | d2c2c2c4
d2 | B3BB2d2c2B2 | B2A2A2A4
d2 | B4B2A2G2A2 | G6-G2z2
G2 | d4d2d2d2e2 | d2c2c2c4
d2 | B4B2A2G2A2 | G6-G2z2

